X:1
T:High Pass Morning
C:Tony Koop / Heifer Zephyr (2026)
S:Public domain or original as noted in notes.md
M:2/4
L:1/8
Q:1/4=92
K:G
H:G pentatonic starter arrangement for Andean Duct Flutes (G). Refs #1
G A B d | e2 d2 | B A G A | B4 |
A B d e | g2 e2 | d B A B | G4 |
B d e g | e2 d2 | B A G A | B4 |
A B d B | G A B d | e d B A | G4 |]
